public/logos/hopper.svg

<svg width="132" height="35" viewBox="0 0 132 35" fill="none" xmlns="http://www.w3.org/2000/svg">
<path d="M39.8869 14.3C39.1868 13.7 39.0868 13.6 39.0868 13.4C39.0868 13.3 39.3869 10.4 39.1868 7.7C38.6868 1.4 35.7864 0 34.7862 0C34.6862 0 34.6862 0 34.5862 0.1C34.2861 0.5 34.2861 1.7 34.6862 3.9C34.8862 4.8 35.3863 6.4 35.8864 8.1C36.4865 10 37.0865 11.9 37.2866 13L37.3866 13.2L35.8864 13.7L35.7864 13.5C35.4863 12.7 34.9862 11.5 34.5862 10C33.7861 7.6 32.7859 4.6 31.9858 3.4C31.3857 2.4 30.0855 1.1 29.4855 1.1H29.3854C29.0854 1.2 28.7854 1.5 28.6853 2.1C28.2853 3.7 28.7854 6.7 30.8857 9.7C32.986 12.5 33.9861 14.1 34.0861 14.6L34.1861 14.8L34.0861 14.9C34.0861 14.9 33.6861 15.4 33.086 15.4C32.7859 15.4 32.4859 15.3 32.2859 15C27.5852 10.4 22.7845 8.1 18.1839 8.1C15.3835 8.1 13.2832 8.9 12.283 9.4C11.883 9.6 11.5829 9.7 11.3829 9.7C11.1829 9.7 11.1829 9.6 11.0828 9.6C10.9828 9.5 10.9828 9.5 10.9828 9.3C10.9828 8 10.8828 6.5 10.5828 6.1C10.4828 6 10.3827 6 10.2827 6C8.48247 5.9 5.8821 7.2 4.98198 9.1C4.38189 10.2 4.58192 11.3 5.28202 12.4C5.98212 13.4 7.08227 13.4 7.78237 13.5C8.18243 13.5 8.48247 13.6 8.58249 13.8C8.6825 14.1 8.38246 14.2 8.18243 14.5C1.28145 19.9 -0.41879 24.5 0.0812809 26.1C0.181295 26.3 0.281309 26.5 0.481338 26.5C0.681366 26.5 0.78138 26.4 0.981409 26.3C6.38218 21.7 11.883 19.3 17.4838 19.3C27.6852 19.3 34.8862 26.9 36.8865 29.3C37.2866 29.8 37.7866 30.4 38.1867 31C39.2868 32.4 40.387 33.8 41.3871 34.5C42.1873 35 43.0874 35.1 43.4874 34.6C43.7875 34.3 43.8875 33.6 43.6875 32.7C43.2874 30.6 41.3871 28.3 40.087 27C38.9868 25.8 38.5868 25.3 38.6868 24.9C38.7868 24.8 38.7868 24.6 39.0868 24.6C42.2873 23.9 44.1875 22.8 44.4876 21.2C44.9877 18.6 41.3871 15.6 39.8869 14.3ZM71.8915 11.9C68.491 11.9 65.6906 14.5 65.6906 17.6C65.6906 18.3 65.8906 19 66.0907 19.7L66.1907 19.8L66.0907 19.9C65.3905 20.7 64.7905 21.2 64.1904 21.2C62.9902 21.2 62.9902 19.5 62.9902 17.4C62.8902 14.8 62.8902 11.9 60.5899 11.9C57.8895 11.9 55.7892 15.4 54.489 18.4L53.9889 19.4L54.189 16C54.389 12.5 54.489 9.2 54.489 5.9C54.489 2.9 54.389 1.2 54.289 0.8C54.189 0.6 53.5889 0.2 53.0888 0.2C52.7888 0.2 51.6886 0.7 51.4886 0.9C51.2886 1.3 51.0885 5.4 51.0885 9.3C51.0885 18.5 51.6886 22.4 51.7886 22.9V23C51.8886 23.2 52.3887 23.3 52.7888 23.3C53.1888 23.3 53.7889 23.2 53.8889 23L53.9889 22.8C55.0891 19.9 57.1894 15 58.9896 15C59.9898 15 59.9898 16.3 60.0898 17.8C60.1898 20.2 60.2898 23.2 63.5903 23.2C64.7905 23.2 65.9906 22.5 67.0908 21.2L67.2908 21L67.4909 21.2C68.691 22.4 70.3913 23.2 72.1915 23.2C75.692 23.2 78.4924 20.6 78.4924 17.5C78.0924 14.5 75.292 11.9 71.8915 11.9ZM71.8915 21.1C70.2913 21.1 69.0911 19.5 69.0911 17.6C69.0911 15.7 70.3913 14.1 71.8915 14.1C73.4917 14.1 74.7919 15.7 74.7919 17.6C74.7919 19.5 73.4917 21.1 71.8915 21.1ZM85.5934 11.9C84.3932 11.9 83.0931 12.3 82.0929 13L81.7929 13.2L81.6929 12.9C81.5928 12.5 81.5928 12.2 81.5928 12.2C81.4928 12 80.8928 11.9 80.4927 11.9C80.1927 11.9 79.5926 12 79.4926 12.2C79.3925 12.6 78.8925 17.1 78.8925 25.2V25.3C78.9925 25.4 78.9925 25.5 78.9925 25.9C79.0925 29.9 79.3925 33.8 79.5926 34.3C79.7926 34.5 80.8928 35 81.1928 35H81.2928C81.8929 35 82.393 34.6 82.393 34.4C82.393 34.3 82.493 33.9 82.493 31.3V29.3C82.493 27.9 82.393 27 82.393 25.8C82.293 25 82.2929 24.1 82.1929 22.7V22.4L82.493 22.6C83.4931 23.1 84.4933 23.4 85.4934 23.4C88.9939 23.4 91.7943 20.8 91.7943 17.7C91.8943 14.5 89.0939 11.9 85.5934 11.9ZM85.5934 21.1C82.993 21.1 82.0929 19.3 82.0929 17.6C82.0929 15.5 83.3931 14.1 85.5934 14.1C87.1936 14.1 88.4938 15.7 88.4938 17.6C88.4938 19.5 87.1936 21.1 85.5934 21.1ZM99.3954 11.9C98.1952 11.9 96.895 12.3 95.8949 13L95.5948 13.2L95.4948 12.9C95.3948 12.5 95.3948 12.2 95.3948 12.2C95.2948 12 94.6947 11.9 94.2947 11.9C93.9946 11.9 93.3945 12 93.2945 12.2C93.1945 12.6 92.6944 17.1 92.6944 25.2V25.3C92.7944 25.4 92.7944 25.5 92.7944 25.9C92.8945 29.9 93.1945 33.8 93.3945 34.3C93.5946 34.5 94.6947 35 94.9948 35H95.0948C95.6949 35 96.1949 34.6 96.1949 34.4C96.1949 34.3 96.2949 33.9 96.2949 31.3V29.3C96.2949 27.9 96.1949 27 96.1949 25.8C96.0949 25 96.0949 24.1 95.9949 22.8V22.5L96.2949 22.7C97.2951 23.2 98.2952 23.5 99.2954 23.5C102.796 23.5 105.596 20.9 105.596 17.8C105.696 14.5 102.896 11.9 99.3954 11.9ZM99.3954 21.1C96.795 21.1 95.8949 19.3 95.8949 17.6C95.8949 15.5 97.1951 14.1 99.3954 14.1C100.996 14.1 102.296 15.7 102.296 17.6C102.296 19.5 100.996 21.1 99.3954 21.1ZM131.7 16.2C131.7 16.2 131.6 16.3 131.6 16.4C130.7 18.2 128.8 21.2 127.399 21.2C126.999 21.2 126.799 20.9 126.799 20.5C126.799 20 127.199 19 127.699 17.9C128.099 16.8 128.7 15.6 128.7 14.9C128.7 13.7 127.899 13.1 126.499 13.1C126.399 13.1 123.399 13.1 122.499 12.5L122.399 12.4V12.3C122.399 11.6 122.199 9.8 120.698 9.8C119.898 9.8 119.398 11 119.398 11.6C119.398 13.2 120.198 13.9 120.598 14.1C120.698 14.2 120.698 14.2 120.698 14.2L120.798 14.3L120.698 14.4C120.298 15.9 119.398 17.2 118.998 18C117.598 20 115.898 20.9 113.597 20.9C111.897 20.9 110.597 20 110.197 18.5L110.097 18.1L110.397 18.2C111.297 18.5 112.097 18.6 112.897 18.6C115.098 18.6 117.398 17.5 117.398 15.1C117.398 13.1 115.498 11.6 112.897 11.6C109.497 11.6 106.696 14.2 106.696 17.3C106.696 19.6 108.497 23 113.497 23C117.498 23 119.498 19.4 120.098 18.3L120.198 18.2C120.898 17 121.499 15.5 121.699 14.9L121.799 14.7L121.999 14.8C122.299 14.9 123.699 15.2 124.599 15.2C124.999 15.2 125.299 15.4 125.299 15.8C125.299 15.9 125.199 16 125.199 16.1L125.099 16.2L124.899 16.5C124.399 17.6 123.699 19.2 123.699 20.3C123.699 21.7 124.599 23.1 126.599 23.1C129.4 23.1 131.1 19.6 131.7 18.5L131.8 18.4C131.9 18.1 132 17.7 132 17.2C131.9 16.8 131.8 16.2 131.7 16.2ZM110.097 17.2C110.297 15.5 111.597 14.1 112.897 14.1C114.097 14.1 114.898 14.7 114.898 15.8C114.898 17.1 113.097 17.6 111.597 17.6C110.997 17.6 110.497 17.5 110.197 17.4L109.997 17.3L110.097 17.2Z" fill="#FA6866"/>
</svg>

<svg xmlns="http://www.w3.org/2000/svg" width="132" height="35" fill="none" viewBox="0 0 132 35"><path fill="#fa6866" d="M39.887 14.3c-.7-.6-.8-.7-.8-.9 0-.1.3-3 .1-5.7-.5-6.3-3.4-7.7-4.4-7.7-.1 0-.1 0-.2.1-.3.4-.3 1.6.1 3.8.2.9.7 2.5 1.2 4.2.6 1.9 1.2 3.8 1.4 4.9l.1.2-1.5.5-.1-.2c-.3-.8-.8-2-1.2-3.5-.8-2.4-1.801-5.4-2.601-6.6-.6-1-1.9-2.3-2.5-2.3h-.1c-.3.1-.6.4-.7 1-.4 1.6.1 4.6 2.2 7.6 2.1 2.8 3.1 4.4 3.2 4.9l.1.2-.1.1s-.4.5-1 .5c-.3 0-.6-.1-.8-.4-4.7-4.6-9.501-6.9-14.102-6.9-2.8 0-4.9.8-5.901 1.3q-.6.3-.9.3c-.2 0-.2-.1-.3-.1-.1-.1-.1-.1-.1-.3 0-1.3-.1-2.8-.4-3.2-.1-.1-.2-.1-.3-.1-1.8-.1-4.4 1.2-5.301 3.1-.6 1.1-.4 2.2.3 3.3.7 1 1.8 1 2.5 1.1.4 0 .7.1.8.3.1.3-.2.4-.4.7-6.9 5.4-8.6 10-8.1 11.6.1.2.2.4.4.4s.3-.1.5-.2c5.4-4.6 10.901-7 16.502-7 10.201 0 17.402 7.6 19.402 10 .4.5.9 1.1 1.3 1.7 1.1 1.4 2.201 2.8 3.201 3.5.8.5 1.7.6 2.1.1.3-.3.4-1 .2-1.9-.4-2.1-2.3-4.4-3.6-5.7-1.1-1.2-1.5-1.7-1.4-2.1.1-.1.1-.3.4-.3 3.2-.7 5.1-1.8 5.4-3.4.5-2.6-3.1-5.6-4.6-6.9m32.004-2.4c-3.4 0-6.2 2.6-6.2 5.7 0 .7.2 1.4.4 2.1l.1.1-.1.1c-.7.8-1.3 1.3-1.9 1.3-1.2 0-1.2-1.7-1.2-3.8-.1-2.6-.1-5.5-2.401-5.5-2.7 0-4.8 3.5-6.101 6.5l-.5 1 .2-3.4c.2-3.5.3-6.8.3-10.1 0-3-.1-4.7-.2-5.1-.1-.2-.7-.6-1.2-.6-.3 0-1.4.5-1.6.7-.2.4-.4 4.5-.4 8.4 0 9.2.6 13.1.7 13.6v.1c.1.2.6.3 1 .3s1-.1 1.1-.3l.1-.2c1.1-2.9 3.2-7.8 5-7.8 1 0 1 1.3 1.1 2.8.1 2.4.2 5.4 3.501 5.4 1.2 0 2.4-.7 3.5-2l.2-.2.2.2c1.201 1.2 2.901 2 4.702 2 3.5 0 6.3-2.6 6.3-5.7-.4-3-3.2-5.6-6.6-5.6m0 9.2c-1.6 0-2.8-1.6-2.8-3.5s1.3-3.5 2.8-3.5c1.6 0 2.9 1.6 2.9 3.5s-1.3 3.5-2.9 3.5m13.702-9.2c-1.2 0-2.5.4-3.5 1.1l-.3.2-.1-.3c-.1-.4-.1-.7-.1-.7-.1-.2-.7-.3-1.1-.3-.3 0-.9.1-1 .3-.1.4-.6 4.9-.6 13v.1c.1.1.1.2.1.6.1 4 .4 7.9.6 8.4.2.2 1.3.7 1.6.7h.1c.6 0 1.1-.4 1.1-.6 0-.1.1-.5.1-3.1v-2c0-1.4-.1-2.3-.1-3.5-.1-.8-.1-1.7-.2-3.1v-.3l.3.2c1 .5 2 .8 3 .8 3.5 0 6.301-2.6 6.301-5.7.1-3.2-2.7-5.8-6.2-5.8m0 9.2c-2.6 0-3.5-1.8-3.5-3.5 0-2.1 1.3-3.5 3.5-3.5 1.6 0 2.9 1.6 2.9 3.5s-1.3 3.5-2.9 3.5m13.802-9.2c-1.2 0-2.5.4-3.5 1.1l-.3.2-.1-.3c-.1-.4-.1-.7-.1-.7-.1-.2-.7-.3-1.1-.3-.3 0-.9.1-1 .3-.1.4-.6 4.9-.6 13v.1c.1.1.1.2.1.6.1 4 .4 7.9.6 8.4.2.2 1.3.7 1.6.7h.1c.6 0 1.1-.4 1.1-.6 0-.1.1-.5.1-3.1v-2c0-1.4-.1-2.3-.1-3.5-.1-.8-.1-1.7-.2-3v-.3l.3.2c1 .5 2 .8 3 .8 3.501 0 6.301-2.6 6.301-5.7.1-3.3-2.7-5.9-6.2-5.9m0 9.2c-2.6 0-3.5-1.8-3.5-3.5 0-2.1 1.3-3.5 3.5-3.5 1.601 0 2.901 1.6 2.901 3.5s-1.3 3.5-2.9 3.5m32.305-4.9s-.1.1-.1.2c-.9 1.8-2.8 4.8-4.201 4.8-.4 0-.6-.3-.6-.7 0-.5.4-1.5.9-2.6.4-1.1 1.001-2.3 1.001-3 0-1.2-.801-1.8-2.201-1.8-.1 0-3.1 0-4-.6l-.1-.1v-.1c0-.7-.2-2.5-1.701-2.5-.8 0-1.3 1.2-1.3 1.8 0 1.6.8 2.3 1.2 2.5l.1.1.1.1-.1.1c-.4 1.5-1.3 2.8-1.7 3.6-1.4 2-3.1 2.9-5.401 2.9-1.7 0-3-.9-3.4-2.4l-.1-.4.3.1c.9.3 1.7.4 2.5.4 2.201 0 4.501-1.1 4.501-3.5 0-2-1.9-3.5-4.501-3.5-3.4 0-6.201 2.6-6.201 5.7 0 2.3 1.801 5.7 6.801 5.7 4.001 0 6.001-3.6 6.601-4.7l.1-.1c.7-1.2 1.301-2.7 1.501-3.3l.1-.2.2.1c.3.1 1.7.4 2.6.4.4 0 .7.2.7.6 0 .1-.1.2-.1.3l-.1.1-.2.3c-.5 1.1-1.2 2.7-1.2 3.8 0 1.4.9 2.8 2.9 2.8 2.801 0 4.501-3.5 5.101-4.6l.1-.1c.1-.3.2-.7.2-1.2-.1-.4-.2-1-.3-1m-21.603 1c.2-1.7 1.5-3.1 2.8-3.1 1.2 0 2.001.6 2.001 1.7 0 1.3-1.801 1.8-3.301 1.8-.6 0-1.1-.1-1.4-.2l-.2-.1z"/></svg>
